icons-common/boiler.svg

<svg height="1em" width="auto" viewBox="0 0 105 105" fill="currentColor" xmlns="http://www.w3.org/2000/svg">
    <path d="M61.54 86.916H44.5423C32.957 86.916 23.5635 77.5809 23.5635 66.1665V39.6655C23.5635 28.2511 33.0017 18.916 44.5423 18.916H61.54C73.1253 18.916 82.5188 28.2511 82.5188 39.6655V66.1223C82.5188 77.5809 73.0805 86.8718 61.54 86.8718V86.916ZM44.5423 26.6584C37.2959 26.6584 31.3914 32.4983 31.3914 39.6655V66.1223C31.3914 73.2895 37.2959 79.1294 44.5423 79.1294H61.54C68.7864 79.1294 74.6909 73.2895 74.6909 66.1223V39.6655C74.6909 32.4983 68.7864 26.6584 61.54 26.6584H44.5423Z"
          />
    <path d="M48.8812 35.2411C48.5233 34.7987 48.0313 34.4448 47.5392 34.2236C46.5104 33.6927 45.2132 33.7369 44.1844 34.2236C43.6476 34.4448 43.1556 34.843 42.7978 35.2411C38.1905 40.5502 27.4551 54.1325 27.4551 64.8833C27.4551 67.5821 27.9024 70.0154 28.6628 72.1832C29.6022 74.6165 30.9888 76.7402 32.8228 78.4213C35.9987 81.3413 40.427 82.9783 45.7947 82.9783C51.1624 82.9783 55.5908 81.3413 58.7219 78.4213C60.6006 76.7402 61.9873 74.6165 62.8819 72.139C63.6871 69.9711 64.0897 67.5821 64.0897 64.8833C64.0897 54.0882 53.399 40.5502 48.7917 35.1969L48.8812 35.2411ZM45.8395 77.7135C45.8395 77.7135 45.75 77.7135 45.6605 77.7135C38.8614 77.6692 34.9251 70.0154 38.4589 64.2639C40.0692 61.6979 41.8584 59.0876 43.7371 56.6985C44.8107 55.327 46.8683 55.327 47.8971 56.6985C49.7758 59.0876 51.565 61.6979 53.1753 64.2639C56.7091 70.0154 52.7727 77.6692 45.9737 77.7135C45.9289 77.7135 45.8842 77.7135 45.7947 77.7135H45.8395ZM48.8812 49.4871C48.5233 49.0446 48.0313 48.6907 47.5392 48.4695C46.5104 47.9828 45.2132 47.9828 44.1844 48.4695C43.6476 48.6907 43.1556 49.0889 42.7978 49.4871C40.427 52.2301 36.3118 57.2294 33.0017 62.9366C33.8516 56.9197 38.5931 49.0889 43.7371 42.4968C44.7659 41.1696 46.8235 41.1696 47.8971 42.4968C52.9964 49.0889 57.6931 56.8755 58.5878 62.9366C55.2329 57.2294 51.2519 52.2743 48.8364 49.5313L48.8812 49.4871Z"
          />
    <path d="M64.4475 22.7652C65.208 42.8511 65.208 62.937 64.4475 83.0229C64.3581 85.1465 62.5241 86.8277 60.377 86.7392C58.3194 86.6507 56.7538 85.0137 56.6196 83.0229C55.8592 62.937 55.8592 42.8511 56.6196 22.7652C56.8433 17.9428 64.2239 17.9428 64.4475 22.7652Z"
          />
</svg>

<svg xmlns="http://www.w3.org/2000/svg" width="auto" height="1em" fill="currentColor" viewBox="0 0 105 105">
    <path d="M61.54 86.916H44.542c-11.585 0-20.978-9.335-20.978-20.75v-26.5c0-11.415 9.438-20.75 20.978-20.75H61.54c11.585 0 20.979 9.335 20.979 20.75v26.456c0 11.459-9.439 20.75-20.979 20.75zM44.542 26.658c-7.246 0-13.15 5.84-13.15 13.008v26.456c0 7.168 5.904 13.007 13.15 13.007H61.54c7.246 0 13.15-5.84 13.15-13.007V39.666c0-7.168-5.904-13.008-13.15-13.008z"/>
    <path d="M48.881 35.241a3.7 3.7 0 0 0-1.342-1.017c-1.029-.531-2.326-.487-3.355 0-.536.22-1.028.619-1.386 1.017-4.608 5.31-15.343 18.892-15.343 29.642 0 2.7.447 5.132 1.208 7.3.94 2.433 2.326 4.557 4.16 6.238 3.176 2.92 7.604 4.557 12.972 4.557s9.796-1.637 12.927-4.557c1.879-1.68 3.265-3.805 4.16-6.282.805-2.168 1.208-4.557 1.208-7.256 0-10.795-10.691-24.333-15.298-29.686zM45.84 77.714h-.18c-6.799-.045-10.735-7.699-7.201-13.45 1.61-2.566 3.4-5.176 5.278-7.565 1.074-1.372 3.131-1.372 4.16 0 1.879 2.389 3.668 4.999 5.278 7.565 3.534 5.751-.402 13.405-7.201 13.45h-.18zm3.041-28.227a3.7 3.7 0 0 0-1.342-1.018 4.04 4.04 0 0 0-3.355 0c-.536.222-1.028.62-1.386 1.018-2.371 2.743-6.486 7.742-9.796 13.45.85-6.017 5.591-13.848 10.735-20.44 1.029-1.327 3.087-1.327 4.16 0 5.1 6.592 9.796 14.379 10.69 20.44-3.354-5.708-7.335-10.663-9.75-13.406z"/>
    <path d="M64.448 22.765q1.14 30.129 0 60.258c-.09 2.124-1.924 3.805-4.071 3.716-2.058-.088-3.623-1.725-3.757-3.716a796 796 0 0 1 0-60.258c.223-4.822 7.604-4.822 7.828 0"/>
</svg>
